!!!!SEGMENT: pl-gd--ee-1638--006-012_marenzio-luca--il-quinto-libro-de-madrigalia-a-cinque-voci-la-rete-fu-di-queste.krn
!!!cenid: 15xx:894
!!!COM: Marenzio, Luca
!!!COM-rismID: pe30003955
!!!CDT: ~1553-1599/08/22
!!!CNT: Italian
!!!GTL: Il Quinto libro de madrigalia a cinque voci
!!!OTL: La rete fù di queste
!!!OMV: 012
!!!PDT: 1585
!!!AGN:
!!!SMS-siglum: PL-GD
!!!SMS-shelfmark: Ee 1638
!!!SMS-variant:
!!!SMS-altvar:
!!!SMS-shelfwork: 006-012 G
!!!NIFC-rismSourceID: 990039296
!!!NIFC-islandoraID: pl-gd:57883
!!!URL-pdf-islandora: https://repozytorium.nifc.pl/islandora/object/pl-gd%3A57883/datastream/PDF/view
!!!URL-scan: https://polish.musicsources.pl/pl/lokalizacje/galeria/klocki-introligatorskie/655 @EN{Scan on Polish Music Herritage in Open Access Website} @PL{Skany w portalu Dziedzictwo Muzyki Polskiej w otwartym dostępie}
!!!ONB-nifc:
!!!AIN: 1 alto 1 bass 1 soprn 1 tenor 1 vox
!!!key: a
**kern	**text	**kern	**text	**kern	**text	**kern	**text	**kern	**text
*part5	*part5	*part4	*part4	*part3	*part3	*part2	*part2	*part1	*part1
*staff5	*staff5	*staff4	*staff4	*staff3	*staff3	*staff2	*staff2	*staff1	*staff1
*I"QVINTO	*	*I"BASSO	*	*I"TENORE 	*	*I"ALTO	*	*I"CANTO	*
*I'V	*	*I'B	*	*I'T	*	*I'A	*	*I'S	*
*ICvox	*	*ICvox	*	*ICvox	*	*ICvox	*	*ICvox	*
*Ivox	*	*Ibass	*	*Itenor	*	*Ialto	*	*Isoprn	*
*clefC3	*	*clefF4	*	*clefC4	*	*clefC3	*	*clefC1	*
*k[]	*	*k[]	*	*k[]	*	*k[]	*	*k[]	*
*a:	*	*a:	*	*a:	*	*a:	*	*a:	*
*M2/1	*	*M2/1	*	*M2/1	*	*M2/1	*	*M2/1	*
*met(C)	*	*met(C)	*	*met(C)	*	*met(C)	*	*met(C)	*
=1-	=1-	=1-	=1-	=1-	=1-	=1-	=1-	=1-	=1-
!LO:TX:a:i:t=Prima parte&colon;	!	!LO:TX:b:i:t=LA rete	!	!LO:TX:a:i:t=Prima parte&colon;	!	!LO:TX:a:i:t=Prima parte&colon;	!	!LO:TX:a:i:t=Prima parte&colon;	!
!	!	!LO:TX:a:i:t=Prima parte&colon;	!	!LO:TX:b:i:t=LA rete	!	!	!	!	!
2r	.	00r	.	00r	.	2e\	LA	1r	.
2e\	LA	.	.	.	.	4A/	re-	.	.
.	.	.	.	.	.	4B/	-te	.	.
4A/	re-	.	.	.	.	4c/	fu-	2a\	LA
4B/	-te	.	.	.	.	4d\	-di	.	.
4c/	fu-	.	.	.	.	4e\	queſ-	4g/	re-
4d\	-di	.	.	.	.	4f\	-te	4f/	-te
=2-	=2-	=2-	=2-	=2-	=2-	=2-	=2-	=2-	=2-
4e\	queſ-	.	.	.	.	4g\	fi-	4e/	fù-
4a\	-te	.	.	.	.	4d\	-la	4f/	-di
4g\	fi-	.	.	.	.	1.e	d'o-	4g/	queſ-
4f#X\	-la	.	.	.	.	.	.	4a\	-te
4g#X\	d'o-	.	.	.	.	.	.	4b\	fi-
2a\	.	.	.	.	.	.	.	4cc\	-la
.	.	.	.	.	.	.	.	2b\	d'o-
4g#X\	.	.	.	.	.	.	.	.	.
=3-	=3-	=3-	=3-	=3-	=3-	=3-	=3-	=3-	=3-
2a\	-ro	2r	.	2r	.	2A/	-ro	1a	-re
1e	In	1AA	In	1A	In	1c	In	.	.
.	.	.	.	.	.	.	.	1r	.
!LO:SIC:v:t=custos f	!	!	!	!	!	!	!	!	!
2e\	che'l	2E\	che'l	2G#X/	che'l	2B/	che'l	.	.
!LO:LB:g=original	!	!	!	!	!	!	!	!	!
=4-	=4-	=4-	=4-	=4-	=4-	=4-	=4-	=4-	=4-
2f#X\	mio	2D/	mio	2A/	mio	2d\	mio	1r	.
!	!	!	!	!	!	!LO:SIC:v:t=custos d	!	!	!
2gny\	pen-	2C/	pẽ(n)	2c\	pẽ(n)	2e\	pen-	.	.
!	!	!	!	!	!	!LO:LB:g=original	!	!	!
1g	-ſier	1G	-ſier	1B	-ſier	2d\	-ſier	4r	.
.	.	.	.	.	.	.	.	8g\	va.-
.	.	.	.	.	.	.	.	8a\	.
.	.	.	.	.	.	2r	.	8b\	.
.	.	.	.	.	.	.	.	8cc\	.
.	.	.	.	.	.	.	.	8dd\	.
!	!	!	!	!	!	!	!	!LO:SIC:v:t=custos cc#	!
.	.	.	.	.	.	.	.	8ee\	.
!	!	!	!	!	!	!	!	!LO:LB:g=original	!
=5-	=5-	=5-	=5-	=5-	=5-	=5-	=5-	=5-	=5-
1e	va-	1A	va-	1r	.	1a	va-	4cc#X\	.
.	.	.	.	.	.	.	.	2dd\	.
.	.	.	.	.	.	.	.	4cc#X\	-go
4f#X\	-go	4D/	-go	4.d\	in-	4a\	-go	4dd\	in-
4.g\	in-	4.G\	in-	.	.	4.d\	in-	4.b\	-tri-
.	.	.	.	8d\	-tri-	.	.	.	.
.	.	.	.	2Gny/	-cò	.	.	.	.
8g\	-tri-	8G\	-tri-	.	.	8d\	-tri-	8b\	-co
2e\	-cò	2C/	-cò	.	.	2g\	-cò	2ee\	l'a-
=6-	=6-	=6-	=6-	=6-	=6-	=6-	=6-	=6-	=6-
.	.	.	.	4.c\	l'a-	.	.	.	.
2fny\	l'a-	4.F\	l'a-	.	.	4.a\	l'a-	4.ccny\	.
.	.	.	.	8B\	.	.	.	.	.
.	.	.	.	8A\	.	.	.	.	.
.	.	8G\	.	8B\	.	8g\	.	8b\	.
4F/	.	8A\	.	4.c\	.	8f\	.	4.a\	.
.	.	8G\	.	.	.	8g\	.	.	.
!	!	!LO:SIC:v:t=custos F	!	!	!	!	!	!	!
4.f\	.	1F	.	.	.	4.a\	.	.	.
.	.	.	.	8B\	.	.	.	8b\	.
.	.	.	.	8A\	.	.	.	8cc\	.
!	!	!	!	!LO:SIC:v:t=custos c	!	!	!	!	!
8g\	.	.	.	8B\	.	8g\	.	8b\	.
!	!	!	!	!LO:LB:g=original	!	!	!	!	!
8a\	.	.	.	2c\	.	8f\	.	2a\	.
8g\	.	.	.	.	.	8g\	.	.	.
2f\	.	.	.	.	.	2a\	.	.	.
!	!	!LO:LB:g=original	!	!	!	!	!	!	!
=7-	=7-	=7-	=7-	=7-	=7-	=7-	=7-	=7-	=7-
.	.	1F	-le	8c\	-le	.	.	8f/	-le
.	.	.	.	8B\	.	.	.	8g/	.
4c\	-le	.	.	8A\	.	4f\	-le	8a\	.
.	.	.	.	8G/	.	.	.	8b\	.
2r	.	.	.	2A/	.	2r	.	2cc\	.
1c	E	1C	E	1r	.	1e	E	2r	.
.	.	.	.	.	.	.	.	1g\	E
=8-	=8-	=8-	=8-	=8-	=8-	=8-	=8-	=8-	=8-
1B	queſ-	1G	queſ-	0r	.	1d	queſ-	.	.
.	.	.	.	.	.	.	.	1g	queſ-
!LO:SIC:v:t=custos d	!	!	!	!	!	!LO:SIC:v:t=custos f	!	!	!
1B	-ti	1E	-ti	.	.	1e	-ti	.	.
.	.	.	.	.	.	.	.	2g/	-ti
!LO:LB:g=original	!	!	!	!	!	!LO:LB:g=original	!	!	!
=9-	=9-	=9-	=9-	=9-	=9-	=9-	=9-	=9-	=9-
2d\	ci-	2D/	ci-	1r	.	2f#X\	ci-	2a\	ci-
!	!	!	!	!	!	!	!	!LO:SIC:v:t=custos b	!
2d\	-gli	2D/	-gli	.	.	2f#\	-gli	2a\	-gli
!	!	!	!	!	!	!	!	!LO:LB:g=original	!
2r	.	1G	l'ar-	2r	.	8g\	l'ar-	8b\	l'ar-
.	.	.	.	.	.	8f#\	.	8a\	.
.	.	.	.	.	.	8e\	.	8g\	.
.	.	.	.	.	.	8f#\	.	8a\	.
8d\	l'ar-	.	.	8B\	l'ar-	4g\	.	4b\	.
8c\	.	.	.	8A\	.	.	.	.	.
8B/	.	.	.	8G/	.	4g\	-co	4b\	-co
8c\	.	.	.	8A/	.	.	.	.	.
=10-	=10-	=10-	=10-	=10-	=10-	=10-	=10-	=10-	=10-
4d\	.	2G\	-co	4B\	.	2r	.	2r	.
4d\	-co	.	.	4B\	-co	.	.	.	.
4r	.	4r	.	4r	.	4r	.	4r	.
4c/	e'l	4C/	e'l	4G/	e'l	4e\	e'l	4ee\	e'l
4e\	guar-	4.C/	guar-	4E/	guar-	4g\	guar-	4ee\	guar-
4a\	-do	.	.	4E/	-do	4e\	-do	4cc\	-do
.	.	8D/	-do	.	.	.	.	.	.
2g#X\	ſtra-	2E\	ſtra-	2B\	ſtra-	2e\	ſtra-	2b\	ſtra-
=11-	=11-	=11-	=11-	=11-	=11-	=11-	=11-	=11-	=11-
2a\	-le	4AA/	-le	2c\	-le	2e\	-te	4a\	-le
.	.	4A\	E'l	.	.	.	.	4a\	e'l
2e\	E'l	4.A\	fe-	4r	.	4r	.	4.cc\	fe-
!	!	!	!	!LO:SIC:v:t=custos A	!	!	!	!	!
.	.	.	.	4A/	E'l	4c/	E'l	.	.
.	.	8G\	-ri-	.	.	.	.	8b\	-ri-
!	!	!	!	!LO:LB:g=original	!	!	!	!	!
4f\	fe-	4F\	-tor	4.A/	fe-	4.c/	fe-	4a\	-tor
!	!	!LO:SIC:v:t=custos A	!	!	!	!	!	!	!
4e\	-ri-	4A\	e'l	.	.	.	.	4cc\	e'l
.	.	.	.	8G/	-ri-	8B/	-ri-	.	.
!	!	!LO:LB:g=original	!	!	!	!	!	!	!
4f\	-tor	4.A\	fe-	4F/	-tor	4A/	-tor	4.cc\	fe-
!	!	!	!	!	!	!LO:SIC:v:t=custos c	!	!	!
4e\	e'l	.	.	4A/	e'l	4c/	e'l	.	.
.	.	8G\	-ri-	.	.	.	.	8b\	-ri-
!	!	!	!	!	!	!LO:LB:g=original	!	!	!
=12-	=12-	=12-	=12-	=12-	=12-	=12-	=12-	=12-	=12-
4.f\	fe-	2.F\	-tor	4.A/	fe-	4.c/	fe-	2a\	-tor
!LO:SIC:v:t=custos a	!	!	!	!	!	!	!	!	!
8gny\	-ri-	.	.	8B\	-ri-	8B/	-ri-	.	.
!LO:LB:g=original	!	!	!	!	!	!	!	!	!
4a\	-tor	.	.	4c\	-tor	4A/	-tor	4r	.
!	!	!	!	!	!	!	!	!LO:SIC:v:t=custos dd	!
4e\	queſ-	4C/	queſ-	4c\	queſ-	4G/	queſ-	4ee\	que-
!	!	!	!	!	!	!	!	!LO:LB:g=original	!
4g\	-ti	4G\	-ti	4B\	-ti	4G/	-ti	4.dd\	-ſti
4f#X\	begl'-	4D/	begl'-	4d\	begl'-	4A/	begl'-	.	.
.	.	.	.	.	.	.	.	8cc\	begl'-
1g\	-oc-	1E\	-oc-	1G/	-oc-	1e\	-oc-	2b\	-oc-
=13-	=13-	=13-	=13-	=13-	=13-	=13-	=13-	=13-	=13-
.	.	.	.	.	.	.	.	8e/	-chi
.	.	.	.	.	.	.	.	8f/	.
.	.	.	.	.	.	.	.	8g/	.
.	.	.	.	.	.	.	.	8a\	.
2d\	-chi	2BB/	-chi	2G/	-chi	4g\	-chi	8b\	.
.	.	.	.	.	.	.	.	8cc\	.
.	.	.	.	.	.	2g\	fo-	4dd\	.
1d	fo-	1D	fo-	2A/	fo-	.	.	1a	fo-
.	.	.	.	.	.	8f#X\	.	.	.
.	.	.	.	.	.	8e\	.	.	.
.	.	.	.	2D/	-re	2f#X\	.	.	.
=14-	=14-	=14-	=14-	=14-	=14-	=14-	=14-	=14-	=14-
0d	-ro	0GG	-ro	2r	.	1g	-ro	0b	-ro
.	.	.	.	2B\	Io	.	.	.	.
.	.	.	.	2B\	ſon	1r	.	.	.
.	.	.	.	2B\	fe-	.	.	.	.
=15-	=15-	=15-	=15-	=15-	=15-	=15-	=15-	=15-	=15-
00r	.	00r	.	2A/	-ri-	1e	Io	0r	.
.	.	.	.	2G/	-to	.	.	.	.
!	!	!	!	!LO:SIC:v:t=custos c	!	!	!	!	!
.	.	.	.	2c\	io	2e\	ſon	.	.
!	!	!	!	!LO:LB:g=original	!	!	!	!	!
.	.	.	.	2c\	ſon	2e\	fe-	.	.
=16-	=16-	=16-	=16-	=16-	=16-	=16-	=16-	=16-	=16-
.	.	.	.	1B	pri-	2d\	-ri-	1b	Io
!	!	!	!	!	!	!LO:SIC:v:t=custos g	!	!	!
.	.	.	.	.	.	2d\	-to in	.	.
!	!	!	!	!	!	!LO:LB:g=original	!	!	!
.	.	.	.	2.e\	-gion	2.g\	ſon	2b\	ſon
.	.	.	.	.	.	.	.	2b\	fe-
.	.	.	.	4d\	per	4fny\	pri-	.	.
=17-	=17-	=17-	=17-	=17-	=17-	=17-	=17-	=17-	=17-
00r	.	0r	.	2c\	lo-	2e\	-gion	2a\	-ri-
.	.	.	.	2.B\	.	2d\	per	2g/	-to
.	.	.	.	.	.	1e	lo-	2cc\	io
.	.	.	.	4A/	.	.	.	.	.
.	.	.	.	1A\	.	.	.	2cc\	ſon
=18-	=18-	=18-	=18-	=18-	=18-	=18-	=18-	=18-	=18-
.	.	1E	Io	.	.	1e	-ro	1.b	pri-
.	.	.	.	4G#X/	.	.	.	.	.
.	.	.	.	4F#X/	.	.	.	.	.
.	.	2E\	ſon	1G#X	.	2r	.	.	.
.	.	2E\	fe-	.	.	2e\	io	2cc#X\	-gion
=19-	=19-	=19-	=19-	=19-	=19-	=19-	=19-	=19-	=19-
0r	.	2D/	-ri-	0A	-ro	2f\	ſon	4dd\	per
!	!	!	!	!	!	!	!	!LO:SIC:v:t=custos cc	!
.	.	.	.	.	.	.	.	4a\	lo-
!	!	!	!	!	!	!	!	!LO:LB:g=original	!
.	.	2C/	-to	.	.	2e\	pri-	2.ccny\	.
.	.	2F\	io	.	.	2c/	-giõ(n)	.	.
.	.	.	.	.	.	.	.	4b\	.
.	.	2F\	ſon	.	.	2d\	per	2.a\	.
=20-	=20-	=20-	=20-	=20-	=20-	=20-	=20-	=20-	=20-
!	!	!LO:SIC:v:t=custos A	!	!	!	!	!	!	!
1e	Io	1E	pri-	1r	.	1B	lo-	.	.
.	.	.	.	.	.	.	.	8g#X/	.
.	.	.	.	.	.	.	.	8f#X/	.
.	.	.	.	.	.	.	.	2g#X/	.
!	!	!LO:LB:g=original	!	!	!	!	!	!	!
2e\	ſon	2.A\	-gion	2r	.	1c	-ro	0a	-ro
2e\	fe-	.	.	2A/	io	.	.	.	.
.	.	4G\	per	.	.	.	.	.	.
=21-	=21-	=21-	=21-	=21-	=21-	=21-	=21-	=21-	=21-
2d\	-ri-	1F	.	2A/	ſon	2r	.	.	.
*	*	*	*	*	*	*	*ij	*	*
2c/	-to	.	.	2A/	pri-	2a\	io	.	.
2fny\	io	1D	lo-	1d	-giõ(n)	2.a\	son	1r	.
2f\	ſon	.	.	.	.	.	.	.	.
.	.	.	.	.	.	4d\	pri-	.	.
=22-	=22-	=22-	=22-	=22-	=22-	=22-	=22-	=22-	=22-
2e\	pri-	4C/	-(r)o	2Gny/	per	2g\	-gion	0r	.
.	.	4D/	.	.	.	.	.	.	.
2e\	-giõ(n)	4E\	.	2.c\	lo-	2g\	per	.	.
.	.	4F\	.	.	.	.	.	.	.
1d	per	1G	.	.	.	1g	lo-	.	.
.	.	.	.	8B\	.	.	.	.	.
!	!	!	!	!LO:SIC:v:t=custos B	!	!	!	!	!
.	.	.	.	8A\	.	.	.	.	.
!	!	!	!	!LO:LB:g=original	!	!	!	!	!
.	.	.	.	2B\	.	.	.	.	.
=23-	=23-	=23-	=23-	=23-	=23-	=23-	=23-	=23-	=23-
!LO:SIC:v:t=custos d	!	!	!	!	!	!LO:SIC:v:t=custos e	!	!	!
0e	loro	2r	.	1c	-ro	1g	-ro	2r	.
.	.	2C/	La	.	.	.	.	2gny/	La pia-
!	!	!	!	!	!	!LO:LB:g=original	!	!	!
.	.	1E	pia-	2r	.	2r	.	1g#X	-ga
*	*	*	*	*	*	*	*Xij	*	*
.	.	.	.	2B\	La	2e\	La	.	.
!LO:LB:g=original	!	!	!	!	!	!	!	!	!
=24-	=24-	=24-	=24-	=24-	=24-	=24-	=24-	=24-	=24-
2r	.	1D	-ga	1d	pia-	1f#X	pia-	1a	in
1d	La	.	.	.	.	.	.	.	.
.	.	4r	.	2G/	-ga	2g\	-ga	4r	.
.	.	4G\	in	.	.	.	.	4b\	me-
2c/	pia-	4E\	mez'-	2r	.	2r	.	4gny/	-z`il
.	.	4F\	-il	.	.	.	.	4a\	cor
=25-	=25-	=25-	=25-	=25-	=25-	=25-	=25-	=25-	=25-
1B	-ga	1G	cor	4r	.	4r	.	1b	in
.	.	.	.	4B\	in	4d\	in	.	.
.	.	.	.	4G/	mez'-	4B/	mez'-	.	.
.	.	.	.	4A/	-il	4c/	-il	.	.
4r	.	4r	.	2B\	cor	2d\	cor	4r	.
*	*	*	*ij	*	*	*	*	*	*
4g\	in	4GG/	in	.	.	.	.	4b\	mez
4e\	mez'-	4C/	mez'-	2r	.	2r	.	4g/	il
!	!	!	!	!	!	!	!	!LO:SIC:v:t=custos b	!
4f#X\	-il	4AA/	-il	.	.	.	.	4a\	cor
!	!	!	!	!	!	!	!	!LO:LB:g=original	!
=26-	=26-	=26-	=26-	=26-	=26-	=26-	=26-	=26-	=26-
4.g\	cor	2GG/	cor	1G	aſ-	2r	.	2b\	aſ-
16fny\	.	.	.	.	.	.	.	.	.
16e\	.	.	.	.	.	.	.	.	.
!	!	!LO:SIC:v:t=custos C	!	!	!	!	!	!	!
*	*	*	*Xij	*	*	*	*	*	*
2d\	.	2BB/	a-	.	.	2g\	aſ-	1dd	-pr'e
!	!	!LO:LB:g=original	!	!	!	!	!	!	!
1r	.	1C	-ſpr'e	1A	-pr'e	2e\	-pr'e	.	.
.	.	.	.	.	.	1a\	mor-	1cc\	mor-
=27-	=27-	=27-	=27-	=27-	=27-	=27-	=27-	=27-	=27-
1F	aſ-	1D	mor-	1B	mor-	.	.	.	.
.	.	.	.	.	.	4g\	.	1b	-ta-
.	.	.	.	.	.	4fny\	.	.	.
2G/	-pr'e	0E	-ta-	1c	-ta-	1e	.	.	.
2A/	mor-	.	.	.	.	.	.	1a\	.
=28-	=28-	=28-	=28-	=28-	=28-	=28-	=28-	=28-	=28-
2B/	-ta-	.	.	1B	-le	1e	-ta-	.	.
2E/	-le	.	.	.	.	.	.	2g#X/	-le
4r	.	2AA/	-le	4r	.	4e\	-le	4r	.
2e\	La	.	.	2A/	La	2c/	La	2a\	La
.	.	2r	.	.	.	.	.	.	.
!LO:SIC:v:t=custos a	!	!	!	!	!	!LO:SIC:v:t=custos f	!	!	!
4g\	pri-	.	.	4G/	pri-	4d\	pri-	4b\	pri-
!LO:LB:g=original	!	!	!	!	!	!LO:LB:g=original	!	!	!
=29-	=29-	=29-	=29-	=29-	=29-	=29-	=29-	=29-	=29-
2a\	-gion	00r	.	2Fny/	-giõ(n)	2f\	-gion	2cc\	-giõ(n)
2a\	fort'-	.	.	2D/	for-	2f\	for-	2dd\	for-
!	!	!	!	!LO:SIC:v:t=custos A	!	!	!	!	!
4g#X\	-e	.	.	4E/	-t'e	4e\	-t'e	4b\	-t'e
!	!	!	!	!LO:LB:g=original	!	!	!	!	!
2a\	pur	.	.	2A/	pur	2e\	pur	2cc\	pur
4b\	in	.	.	4G/	in	4g\	in	4dd\	in
=30-	=30-	=30-	=30-	=30-	=30-	=30-	=30-	=30-	=30-
4e\	tan-	.	.	4c\	tan-	4g\	tan-	4cc\	tan-
4d\	-to	.	.	4d\	-to	4f#X\	-to	4a\	-to
2d\	ma-	.	.	2G/	ma-	2g\	ma-	2b-X\	ma-
4c/	-le	.	.	4A/	-le	4e\	-le	4a\	-le
4f\	E	.	.	4F/	E-	4a\	E	4cc\	E
4.f\	chi	.	.	4.F/	-chi	4.a\	chi	4.cc\	chi
!	!	!	!	!	!	!	!	!LO:SIC:v:t=custos a	!
8d\	fe-	.	.	8G/	fe-	8g\	fe-	8b-\	fe-
!	!	!	!	!	!	!	!	!LO:LB:g=original	!
=31-	=31-	=31-	=31-	=31-	=31-	=31-	=31-	=31-	=31-
4c/	-rim-	0r	.	4A/	-rim-	4e\	-rim-	4a\	-rim-
4f\	-m'e	.	.	4F/	-m'e	4a\	-m'e	4cc\	-m'e
4.e\	chi	.	.	4.c\	chi	4.g\	chi	4.cc\	chi
8d\	mi	.	.	8d\	mi	8fny\	mi	8a\	mi
4c#X/	pre-	.	.	4A/	pre-	4e\	pre-	4a\	pre-
2d\	-ſe a-	.	.	4B-X\	-ſe a-	4d\	-ſe a-	4gny/	-ſe a-
.	.	.	.	2A/	-do-	2e\	-do-	2a\	-do-
!LO:SIC:v:t=custos d	!	!	!	!	!	!	!	!	!
4c#X/	-do-	.	.	.	.	.	.	.	.
!LO:LB:g=original	!	!	!	!	!	!	!	!	!
=32-	=32-	=32-	=32-	=32-	=32-	=32-	=32-	=32-	=32-
!	!	!	!	!	!	!LO:SIC:v:t=custos d	!	!	!
4d\	-ro	4r	.	4D/	-ro	1f	-ro	1a	-ro
4A/	E	4D/	E	4F/	E	.	.	.	.
4d\	chi	4.D/	chi	4.F/	chu	.	.	.	.
4d\	fe-	.	.	.	.	.	.	.	.
!	!	!	!	!LO:SIC:v:t=custos A	!	!	!	!	!
.	.	8E\	fe-	8G/	fe-	.	.	.	.
!	!	!	!	!LO:LB:g=original	!	!LO:LB:g=original	!	!	!
4cny/	-rim-	4F\	-rim-	4.A/	-rim-	4r	.	1r	.
4f\	-m'e	4D/	-m'e	.	.	4d\	E	.	.
.	.	.	.	8Bny\	-m'e	.	.	.	.
4.e\	chi	4.C/	chi	4.c\	chi	4.g\	chi	.	.
8d\	mi	8D/	mi	8A/	mi	8f\	mi	.	.
=33-	=33-	=33-	=33-	=33-	=33-	=33-	=33-	=33-	=33-
4B/	pre-	4E\	pre	4G#X/	pre	4e\	pre-	2r	.
4A/	-ſe a-	4F\	-ſe a-	2A/	-ſe a-	4d\	-ſe a-	.	.
2B/	-do-	2E\	-do-	.	.	2e\	-do-	4r	.
.	.	.	.	4G#X/	-do-	.	.	4bny\	E
2A/	-ro	2AA/	-ro.	4.A/	-ro.	1.e	-ro.	4.cc\	chi
.	.	.	.	8B\	.	.	.	8b\	fe-
4r	.	4r	.	2c\	.	.	.	4a\	-rim-
!	!	!LO:SIC:v:t=custos E	!	!	!	!	!	!	!
4e\	E	4AA/	E	.	.	.	.	4a\	-m'e
!	!	!LO:LB:g=original	!	!	!	!	!	!	!
=34-	=34-	=34-	=34-	=34-	=34-	=34-	=34-	=34-	=34-
4.gny\	chi	4.E\	chi	4r	.	.	.	2b\	chi
.	.	.	.	2Gny/	E	.	.	.	.
8f\	fe-	8D/	fe-	.	.	.	.	.	.
4e\	-rim-	4C/	-rim-	.	.	4r	.	2cc\	mi
*	*	*	*	*	*	*	*ij	*	*
4a\	-m'e	4AA/	-m'e	4.A/	chi	4e\	E	.	.
4.d\	chi	4.D/	chi	.	.	4.f\	chi	2a\	pre-
.	.	.	.	8G/	mi	.	.	.	.
.	.	.	.	2F/	pre-	.	.	.	.
!LO:SIC:v:t=custos f	!	!	!	!	!	!	!	!	!
8e\	mi	8C/	mi	.	.	8e\	mi	.	.
!LO:LB:g=original	!	!	!	!	!	!	!	!	!
4f\	pre-	4BB-X/	pre-	.	.	4d\	pre-	2b-X\	-ſe a-
4B-X/	-ſe a-	4GG/	-ſe a-	4G/	-se a-	4d\	-se a-	.	.
=35-	=35-	=35-	=35-	=35-	=35-	=35-	=35-	=35-	=35-
1d	-do-	1D	-do-	1A	-do-	1f	-do-	1a	-do-
!LO:TX:t=P:problem: 00A# poprawiona czarnym tuszem na 00c	!	!	!	!	!	!	!	!	!
00c/	-ro.	00AA	-ro.	00A/	-ro	00e	-ro	00a	-ro.
*	*	*	*	*	*	*	*Xij	*	*
==	==	==	==	==	==	==	==	==	==
*-	*-	*-	*-	*-	*-	*-	*-	*-	*-
!!!system-decoration: [(s1,s2,s3,s4,s5)]
!!!ENC: Andrzej Gręziak
!!!END: 2022-06-09
!!!ENC: Jan Barakat
!!!END: 2022-07-20
